X:420
T:Little Nightingale
C:Traditional Dutch
H:For the dance by Pat Shaw
L:1/4
M:2/2
S:Colin Hume's website,  colinhume.com  - chords can also be printed below the stave.
Q:1/2=106
K:G
P:A
|:d | "G"dg "C"fe | "G"d2 "/"Bc/d/ | "C"ed "Am"cB | "D"A2 "Em"B2 | "Am"cB "D7"A3/G/ | "G"G3 :|
P:B
|: A/B/ | "C"cc "/"c3/B/ | "Am"c2- "/"cc | "Dm"de "G7"=fg | "C"e2 "G/B"de/d/ | "Am"cB "/"AB | "D7/F#"c2 "G"B2 |
"Am"Ad "/"cB | "D7"AF "/"GA | "Em"B/A/B/c/ "D7"A3/G/ | "G"G3 :|

